src/pos-icons/nodejs.svg

<svg height="24" viewBox="0 0 24 24" width="24" xmlns="http://www.w3.org/2000/svg"><path d="m12 1.85c-.27 0-.55.07-.78.2l-7.44 4.3c-.48.28-.78.8-.78 1.36v8.58c0 .56.3 1.08.78 1.36l1.95 1.12c.95.46 1.27.47 1.71.47 1.4 0 2.21-.85 2.21-2.33v-8.47c0-.12-.1-.22-.22-.22h-.93c-.13 0-.23.1-.23.22v8.47c0 .66-.68 1.31-1.77.76l-2.05-1.17c-.07-.05-.11-.13-.11-.21v-8.58c0-.09.04-.17.11-.21l7.44-4.29c.06-.04.16-.04.22 0l7.44 4.29c.07.04.11.12.11.21v8.58c0 .08-.04.16-.11.21l-7.44 4.29c-.06.04-.16.04-.23 0l-1.88-1.14c-.08-.03-.16-.04-.21-.01-.53.3-.63.36-1.12.51-.12.04-.31.11.07.32l2.48 1.47c.24.14.5.21.78.21s.54-.07.78-.21l7.44-4.29c.48-.28.78-.8.78-1.36v-8.58c0-.56-.3-1.08-.78-1.36l-7.44-4.3c-.23-.13-.5-.2-.78-.2m2 6.15c-2.12 0-3.39.89-3.39 2.39 0 1.61 1.26 2.08 3.3 2.28 2.43.24 2.62.6 2.62 1.08 0 .83-.67 1.18-2.23 1.18-1.98 0-2.4-.49-2.55-1.47-.02-.1-.11-.18-.22-.18h-.96c-.12 0-.21.09-.21.22 0 1.24.68 2.74 3.94 2.74 2.35 0 3.7-.93 3.7-2.55 0-1.61-1.08-2.03-3.37-2.34-2.31-.3-2.54-.46-2.54-1 0-.45.2-1.05 1.91-1.05 1.5 0 2.09.33 2.32 1.36.02.1.11.17.21.17h.97c.05 0 .11-.02.15-.07.04-.04.07-.1.05-.16-.14-1.78-1.32-2.6-3.7-2.6z"/></svg>

<?xml version="1.0" encoding="UTF-8"?><!DOCTYPE svg PUBLIC "-//W3C//DTD SVG 1.1//EN" "http://www.w3.org/Graphics/SVG/1.1/DTD/svg11.dtd"><svg xmlns="http://www.w3.org/2000/svg" xmlns:xlink="http://www.w3.org/1999/xlink" version="1.1" id="mdi-nodejs" width="24" height="24" viewBox="0 0 24 24"><path d="M12,1.85C11.73,1.85 11.45,1.92 11.22,2.05L3.78,6.35C3.3,6.63 3,7.15 3,7.71V16.29C3,16.85 3.3,17.37 3.78,17.65L5.73,18.77C6.68,19.23 7,19.24 7.44,19.24C8.84,19.24 9.65,18.39 9.65,16.91V8.44C9.65,8.32 9.55,8.22 9.43,8.22H8.5C8.37,8.22 8.27,8.32 8.27,8.44V16.91C8.27,17.57 7.59,18.22 6.5,17.67L4.45,16.5C4.38,16.45 4.34,16.37 4.34,16.29V7.71C4.34,7.62 4.38,7.54 4.45,7.5L11.89,3.21C11.95,3.17 12.05,3.17 12.11,3.21L19.55,7.5C19.62,7.54 19.66,7.62 19.66,7.71V16.29C19.66,16.37 19.62,16.45 19.55,16.5L12.11,20.79C12.05,20.83 11.95,20.83 11.88,20.79L10,19.65C9.92,19.62 9.84,19.61 9.79,19.64C9.26,19.94 9.16,20 8.67,20.15C8.55,20.19 8.36,20.26 8.74,20.47L11.22,21.94C11.46,22.08 11.72,22.15 12,22.15C12.28,22.15 12.54,22.08 12.78,21.94L20.22,17.65C20.7,17.37 21,16.85 21,16.29V7.71C21,7.15 20.7,6.63 20.22,6.35L12.78,2.05C12.55,1.92 12.28,1.85 12,1.85M14,8C11.88,8 10.61,8.89 10.61,10.39C10.61,12 11.87,12.47 13.91,12.67C16.34,12.91 16.53,13.27 16.53,13.75C16.53,14.58 15.86,14.93 14.3,14.93C12.32,14.93 11.9,14.44 11.75,13.46C11.73,13.36 11.64,13.28 11.53,13.28H10.57C10.45,13.28 10.36,13.37 10.36,13.5C10.36,14.74 11.04,16.24 14.3,16.24C16.65,16.24 18,15.31 18,13.69C18,12.08 16.92,11.66 14.63,11.35C12.32,11.05 12.09,10.89 12.09,10.35C12.09,9.9 12.29,9.3 14,9.3C15.5,9.3 16.09,9.63 16.32,10.66C16.34,10.76 16.43,10.83 16.53,10.83H17.5C17.55,10.83 17.61,10.81 17.65,10.76C17.69,10.72 17.72,10.66 17.7,10.6C17.56,8.82 16.38,8 14,8Z" /></svg>
